assets/Japanese bargain button/Flat/japanese_bargain_button_flat.svg

<svg width="32" height="32" viewBox="0 0 32 32" fill="none" xmlns="http://www.w3.org/2000/svg">
<path d="M2 16C2 8.26801 8.26801 2 16 2C23.732 2 30 8.26801 30 16C30 23.732 23.732 30 16 30C8.26801 30 2 23.732 2 16Z" fill="#F92F60"/>
<path d="M13 7C13 6.44772 13.4477 6 14 6H22C22.5523 6 23 6.44772 23 7V13C23 13.5523 22.5523 14 22 14H14C13.4477 14 13 13.5523 13 13V7ZM20.875 11H15.125C15.0559 11 15 11.056 15 11.125V11.875C15 11.944 15.0559 12 15.125 12H20.875C20.944 12 21 11.944 21 11.875V11.125C21 11.056 20.944 11 20.875 11ZM15 8.875C15 8.94404 15.0559 9 15.125 9H20.875C20.944 9 21 8.94404 21 8.875V8.125C21 8.05596 20.944 8 20.875 8H15.125C15.0559 8 15 8.05596 15 8.125V8.875Z" fill="white"/>
<path d="M6.70708 12.2935C6.31655 11.9029 6.31655 11.2698 6.70708 10.8793L10.2426 7.34372C10.6331 6.9532 11.2663 6.9532 11.6568 7.34372C12.0473 7.73425 12.0473 8.36741 11.6568 8.75794L8.12129 12.2935C7.73077 12.684 7.0976 12.684 6.70708 12.2935Z" fill="white"/>
<path d="M8.99997 16.3416C8.99997 16.2302 8.86533 16.1744 8.78658 16.2532L8.12129 16.9185C7.73077 17.309 7.0976 17.309 6.70708 16.9185C6.31655 16.5279 6.31655 15.8948 6.70708 15.5043L10.2426 11.9687C10.6331 11.5782 11.2663 11.5782 11.6568 11.9687C12.0473 12.3592 12.0473 12.9924 11.6568 13.3829L11.0366 14.0032C11.0131 14.0266 11 14.0584 11 14.0916V25C11 25.5523 10.5523 26 9.99997 26C9.44769 26 8.99997 25.5523 8.99997 25V16.3416Z" fill="white"/>
<path d="M15.6994 21.254C15.3089 20.8635 14.6757 20.8635 14.2852 21.254C13.8946 21.6445 13.8946 22.2777 14.2852 22.6682L15.6994 24.0824C16.0899 24.4729 16.7231 24.4729 17.1136 24.0824C17.5041 23.6919 17.5041 23.0587 17.1136 22.6682L15.6994 21.254Z" fill="white"/>
<path d="M13 15C12.4477 15 12 15.4477 12 16C12 16.5523 12.4477 17 13 17H19.875C19.944 17 20 17.056 20 17.125V17.875C20 17.944 19.944 18 19.875 18H13C12.4477 18 12 18.4477 12 19C12 19.5523 12.4477 20 13 20H19.875C19.944 20 20 20.056 20 20.125V23.875C20 23.944 19.944 24 19.875 24H19C18.4477 24 18 24.4477 18 25C18 25.5523 18.4477 26 19 26H21C21.5523 26 22 25.5523 22 25V20.125C22 20.056 22.0559 20 22.125 20H24C24.5523 20 25 19.5523 25 19C25 18.4477 24.5523 18 24 18H22.125C22.0559 18 22 17.944 22 17.875V17.125C22 17.056 22.0559 17 22.125 17H24C24.5523 17 25 16.5523 25 16C25 15.4477 24.5523 15 24 15H13Z" fill="white"/>
</svg>

<svg xmlns="http://www.w3.org/2000/svg" width="32" height="32" fill="none"><path fill="#F92F60" d="M2 16C2 8.268 8.268 2 16 2s14 6.268 14 14-6.268 14-14 14S2 23.732 2 16Z"/><path fill="#fff" d="M13 7a1 1 0 0 1 1-1h8a1 1 0 0 1 1 1v6a1 1 0 0 1-1 1h-8a1 1 0 0 1-1-1V7Zm7.875 4h-5.75a.125.125 0 0 0-.125.125v.75c0 .069.056.125.125.125h5.75a.125.125 0 0 0 .125-.125v-.75a.125.125 0 0 0-.125-.125ZM15 8.875c0 .069.056.125.125.125h5.75A.125.125 0 0 0 21 8.875v-.75A.125.125 0 0 0 20.875 8h-5.75a.125.125 0 0 0-.125.125v.75ZM6.707 12.293a1 1 0 0 1 0-1.414l3.536-3.535a1 1 0 1 1 1.414 1.414L8.12 12.294a1 1 0 0 1-1.414 0ZM9 16.342a.125.125 0 0 0-.213-.089l-.666.666a1 1 0 0 1-1.414-1.415l3.536-3.535a1 1 0 0 1 1.414 1.414l-.62.62a.125.125 0 0 0-.037.089V25a1 1 0 1 1-2 0v-8.658ZM15.7 21.254a1 1 0 0 0-1.415 1.414l1.414 1.414a1 1 0 0 0 1.415-1.414l-1.415-1.414Z"/><path fill="#fff" d="M13 15a1 1 0 1 0 0 2h6.875c.069 0 .125.056.125.125v.75a.125.125 0 0 1-.125.125H13a1 1 0 1 0 0 2h6.875c.069 0 .125.056.125.125v3.75a.125.125 0 0 1-.125.125H19a1 1 0 1 0 0 2h2a1 1 0 0 0 1-1v-4.875c0-.069.056-.125.125-.125H24a1 1 0 1 0 0-2h-1.875a.125.125 0 0 1-.125-.125v-.75c0-.069.056-.125.125-.125H24a1 1 0 1 0 0-2H13Z"/></svg>
